X:1
T:Ellesmere, LM
T:Ellesmere, LM
T:Alexander Robert Reinagle, 1868
T:Public Domain Courtesy of the Cyber Hymnal™
C:Alexander Robert Reinagle, 1868
Z:Public Domain
Z:Courtesy of the Cyber Hymnal™
%%score ( 1 2 ) 3
L:1/8
Q:1/4=110
M:4/4
K:Eb
V:1 treble 
V:2 treble 
V:3 bass 
V:1
 [EG]2 | [DF]2 [CE]2 [CA]2 [CF]2 | [B,E]2 [B,D]2 [B,E]2 [EG]2 | [=B,G]2 [CG]2 [G=A]2 [Gc]2 | %4
 [GB]2 [^F=A]2 G4 | [EG]2 [EB]2 [EG]2 [CF]2 | [DG]2 [CE]2 [CA]2 [DF]2 | [EG]2 [DF]2 [CE]2 [CE]2 | %8
 [FA]2 [EG]2 [DF]2 E2- | E6 |] %10
V:2
 x2 | x8 | x8 | x8 | x4 G4 | x8 | x8 | x8 | x6 E2- | E6 |] %10
V:3
 [E,B,]2 | [B,,A,]2 [C,G,]2 [F,,F,]2 [A,,F,]2 | [B,,G,]2 [B,,F,]2 [E,G,]2 [C,G,]2 | %3
 [D,G,]2 [E,C]2 [C,E]2 [=A,,E]2 | [D,D]2 [D,C]2 [G,,B,]4 | [E,B,]2 [G,B,]2 [E,B,]2 [A,C]2 | %6
 [G,=B,]2 [C,C]2 [F,A,]2 [=B,,B,]2 | [E,B,]2 [B,,A,]2 [C,G,]2 [A,,A,]2 | %8
 [F,,C]2 [B,,B,]2 [B,,A,]2 [E,G,]2- | [E,G,]6 |] %10

